X: 16391
T: Gwrachod Llanddona
R: jig
M: 6/8
K: Gmajor
|:B3 AGA|BcB B3|e3 ded|cec B3|
B3 AGA|BcB e2 f|gfe def|1 e3 edc:|2 e3 e2 f||
|:gfe def|e2 e B3|gfe def|e3 b2 f|
gfe def|e2 e B2 A|GAB gfd|1 e3 e2 f:|2 e6||

